X: 24
T:Three Jolly Sheepskins
S:James Lock
M:4/4
L:1/8
Q:1/8=180
K:G
A2 D2 A2 DB|c2 cA BcdB|A2 D2 A2 D2|1 A>B (3cBA G4|2 D>cBA G4||
GABc d>edB|c>dcA Bc d2|GABc dBdg|ecAF G4:||
